24x24/apps/kbibtex.svg

<svg xmlns="http://www.w3.org/2000/svg" width="24" height="24"><rect style="opacity:.2" width="16" height="20" x="4" y="2.5" rx="1" ry="1"/><rect style="fill:#57a27f" width="16" height="20" x="4" y="2" rx="1" ry="1"/><path style="opacity:.2" d="M5 2c-.554 0-1 .446-1 1v18c0 .554.446 1 1 1h2V2z"/><path style="opacity:.2;fill:#f4f4f7" d="M5 2c-.554 0-1 .446-1 1v.5c0-.554.446-1 1-1h14c.554 0 1 .446 1 1V3c0-.554-.446-1-1-1z"/><path style="opacity:.2" d="M11 7.5V11l3.333-3.5L17 7.95l-4.606 4.55L17 17l-2.667.5L11 14v3l-2 .5V7.95z"/><path style="fill:#f4f4f7" d="M11 7v3.5L14.333 7 17 7.45 12.394 12 17 16.5l-2.667.5L11 13.5v3L9 17V7.45z"/></svg>

<svg xmlns="http://www.w3.org/2000/svg" width="24" height="24" version="1.1">
 <rect style="opacity:0.2" width="16" height="20" x="4" y="2.5" rx="1" ry="1"/>
 <rect style="fill:#57a27f" width="16" height="20" x="4" y="2" rx="1" ry="1"/>
 <path style="opacity:0.2" d="M 5,2 C 4.446,2 4,2.446 4,3 v 18 c 0,0.554 0.446,1 1,1 H 7 V 2 Z"/>
 <path style="opacity:0.2;fill:#f4f4f7" d="M 5,2 C 4.446,2 4,2.446 4,3 v 0.5 c 0,-0.554 0.446,-1 1,-1 h 14 c 0.554,0 1,0.446 1,1 V 3 C 20,2.446 19.554,2 19,2 Z"/>
 <path style="opacity:0.2" d="M 11,7.5 V 11 L 14.333334,7.5 17,7.95 12.39394,12.5 17,17 14.333334,17.5 11,14 v 3 L 9,17.5 V 7.95 Z"/>
 <path style="fill:#f4f4f7" d="m 11,7 v 3.5 L 14.333334,7 17,7.45 12.39394,12 17,16.5 14.333334,17 11,13.5 v 3 L 9,17 V 7.45 Z"/>
</svg>
